packages/seti-ui/icons/odata.svg

<svg id="svg6336" xmlns="http://www.w3.org/2000/svg" viewBox="0 0 32 32"><style>.st0{fill:#231f20}</style><path class="st0" d="M22.5 7.1h-13C8.1 7.1 7 8.2 7 9.6v12.8c0 1.4 1.1 2.5 2.5 2.5h12.9c1.4 0 2.5-1.1 2.5-2.5V9.6c.1-1.4-1-2.5-2.4-2.5zM11.9 22.9c-1.4 0-2.6-1.2-2.6-2.6s1.2-2.6 2.6-2.6 2.6 1.2 2.6 2.6-1.1 2.6-2.6 2.6zm3.9-6.5H9.4v-1.7h6.3v1.7zm0-2.5H9.4v-1.7h6.3v1.7zm0-2.5H9.4V9.8h6.3v1.6zm6.8 7.3h-6.3V17h6.3v1.7zm0-2.4h-6.3v-1.7h6.3v1.7zm0-2.5h-6.3v-1.7h6.3v1.7zm0-2.4h-6.3V9.7h6.3v1.7z"/></svg>

<?xml version="1.0" encoding="utf-8"?>
<!-- Generator: Adobe Illustrator 22.0.0, SVG Export Plug-In . SVG Version: 6.00 Build 0)  -->
<svg version="1.1"
	 id="svg6336" inkscape:version="0.48.5 r10040" sodipodi:docname="logo-OData.svg" xmlns:cc="http://creativecommons.org/ns#" xmlns:dc="http://purl.org/dc/elements/1.1/" xmlns:inkscape="http://www.inkscape.org/namespaces/inkscape" xmlns:rdf="http://www.w3.org/1999/02/22-rdf-syntax-ns#" xmlns:sodipodi="http://sodipodi.sourceforge.net/DTD/sodipodi-0.dtd" xmlns:svg="http://www.w3.org/2000/svg"
	 xmlns="http://www.w3.org/2000/svg" xmlns:xlink="http://www.w3.org/1999/xlink" x="0px" y="0px" viewBox="0 0 32 32"
	 style="enable-background:new 0 0 32 32;" xml:space="preserve">
<style type="text/css">
	.st0{fill:#231F20;}
</style>
<sodipodi:namedview  bordercolor="#666666" borderopacity="1" fit-margin-bottom="1" fit-margin-left="1" fit-margin-right="1" fit-margin-top="1" gridtolerance="10" guidetolerance="10" id="namedview3131" inkscape:current-layer="svg6336" inkscape:cx="37.593195" inkscape:cy="31.088695" inkscape:pageopacity="0" inkscape:pageshadow="2" inkscape:window-height="1537" inkscape:window-maximized="1" inkscape:window-width="2560" inkscape:window-x="-8" inkscape:window-y="-8" inkscape:zoom="8.8" objecttolerance="10" pagecolor="#ffffff" showgrid="false">
	</sodipodi:namedview>
<path class="st0" d="M22.5,7.1H9.5C8.1,7.1,7,8.2,7,9.6v12.8c0,1.4,1.1,2.5,2.5,2.5h12.9c1.4,0,2.5-1.1,2.5-2.5V9.6
	C25,8.2,23.9,7.1,22.5,7.1z M11.9,22.9c-1.4,0-2.6-1.2-2.6-2.6s1.2-2.6,2.6-2.6s2.6,1.2,2.6,2.6S13.4,22.9,11.9,22.9z M15.8,16.4
	H9.4v-1.7h6.3V16.4z M15.8,13.9H9.4v-1.7h6.3V13.9z M15.8,11.4H9.4V9.8h6.3V11.4z M22.6,18.7h-6.3v-1.7h6.3V18.7z M22.6,16.3h-6.3
	v-1.7h6.3V16.3z M22.6,13.8h-6.3v-1.7h6.3V13.8z M22.6,11.4h-6.3V9.7h6.3V11.4z"/>
</svg>
